X:1
T:Title
%%score { ( 1 3 ) | 2 }
L:1/8
Q:1/4=94
M:4/4
K:F
V:1 treble nm="Grand Piano"
V:3 treble 
V:2 bass 
V:1
 (3[DF][DG][DA] (3[DB][Dc][D^c] [Dd]2 [DB]2 | c>G Gd [_Ec]4 | (3FG_A (3=ABc _e2 A2 | %3
w: H.~Milton~Webb * * * * * * *|||
 [DG]>[DF] [DF][^CE] [DF]4 | (3[DF][DG][DA] (3[DB][Dc][D^c] [Dd]2 [DB]2 | c>G Gd c3 B | %6
w: |||
 A>B cd _eeFd |[M:17/16] c/-c/-c/-c/-c-<c[DB]/-[DB]/-[DB]/-[DB]/-[DB]/-[DB]-<[DB] |[M:1/8] G | %9
w: |||
[M:4/4] G>F _EF G B2 B | [C_A]2 [_Ec]2 B3 G | G>F _EF G B2 G | G>F _EG [DF]3 G | G>F _EF G B2 B | %14
w: |||||
[M:9/8] [C_A]2 [_Ec]- [Ec] B2- BG>A |[M:4/4] B6 z2 | [DF]4 _E4 | %17
w: |||
 (3[DF][DG][DA] (3[DB][Dc][D^c] [Dd]2 [DB]2 | c>G Gd [_Ec]4 | (3FG_A (3=ABc _e2 A2 | %20
w: |||
 [DG]>[DF] [DF][^CE] [DF]4 | (3[DF][DG][DA] (3[DB][Dc][D^c] [Dd]2 [DB]2 | z4 c4 | A>B cd _eeFd | %24
w: ||||
[M:33/16] c/-c/-c/-c/-c-<c[DB]/-[DB]/-[DB]/-[DB]/-[DB]/-[DB]-<[DB] z/ z/ z/ z/ z/ z/ z/ z/ z/ z/ z/ z/ z/ z/ z |] %25
w: |
V:2
 (3[B,,B,][B,,B,][B,,B,] (3[B,,B,][B,,B,][B,,B,] [B,,B,]2 [B,,B,]2 | %1
 [_E,G,_E]>[E,G,E] [E,G,E][E,G,E] [C,G,]4 | %2
 (3[F,A,_E][F,A,E][F,A,E] (3[F,A,E][F,A,E][F,A,E] [F,A,E]2 [F,A,E]2 | %3
 [B,,B,]>[B,,B,] [B,,B,][B,,G,] [B,,F,]4 | %4
 (3[B,,B,][B,,B,][B,,B,] (3[B,,B,][B,,B,][B,,B,] [B,,B,]2 [B,,B,]2 | %5
 [_E,G,_E]>[E,G,E] [E,G,E][E,G,E] [C,G,]4 | %6
 [F,A,_E]>[F,A,E] [F,A,E][F,A,E] [F,A,E][F,A,E][F,A,E][F,A,E] | %7
[M:17/16] [F,A,_E]/-[F,A,E]/-[F,A,E]/-[F,A,E]/-[F,A,E]-<[F,A,E][B,,B,]/-[B,,B,]/-[B,,B,]/-[B,,B,]/-[B,,B,]/-[B,,B,]-<[B,,B,] | %8
[M:1/8] [_E,B,_E] |[M:4/4] [_E,B,_E]>[E,_A,E] [E,G,][E,A,E] [E,B,E] [E,G,E]2 [E,G,E] | %10
 [_A,,_A,]2 [A,,A,]2 [_E,G,_E]3 [E,B,E] | %11
 [_E,B,_E]>[E,_A,E] [E,A,][E,A,E] [E,B,E] [E,G,E]2 [E,B,E] | %12
 [F,A,_E]>[F,A,E] [F,A,][F,A,E] [B,,B,]3 [_E,B,E] | %13
 [_E,B,_E]>[E,_A,E] [E,G,][E,A,E] [E,B,E] [E,G,E]2 [E,G,^C] | %14
[M:9/8] [_A,,_A,]2 [A,,A,]- [A,,A,] [_E,G,_E]2- [E,G,E] z z | %15
[M:4/4] z2 [_E,_E]>[E,E] [E,E]2 [E,B,E]2 | [B,,_A,]4 [_E,G,]4 | %17
 (3[B,,B,][B,,B,][B,,B,] (3[B,,B,][B,,B,][B,,B,] [B,,B,]2 [B,,B,]2 | %18
 [_E,G,_E]>[E,G,E] [E,G,E][E,G,E] [C,G,]4 | %19
 (3[F,A,_E][F,A,E][F,A,E] (3[F,A,E][F,A,E][F,A,E] [F,A,E]2 [F,A,E]2 | %20
 [B,,B,]>[B,,B,] [B,,B,][B,,G,] [B,,F,]4 | %21
 (3[B,,B,][B,,B,][B,,B,] (3[B,,B,][B,,B,][B,,B,] [B,,B,]2 [B,,B,]2 | %22
 [_E,G,_E]>[E,G,E] [E,G,E][E,G,E] [C,G,]4 | %23
 [F,A,_E]>[F,A,E] [F,A,E][F,A,E] [F,A,E][F,A,E][F,A,E][F,A,E] | %24
[M:33/16] [F,A,_E]/-[F,A,E]/-[F,A,E]/-[F,A,E]/-[F,A,E]-<[F,A,E][B,,B,]/-[B,,B,]/-[B,,B,]/-[B,,B,]/-[B,,B,]/-[B,,B,]-<[B,,B,] z/ z/ z/ z/ z/ z/ z/ z/ z/ z/ z/ z/ z/ z/ z |] %25
V:3
 x8 | x8 | x8 | x8 | x8 | z4 E4 | x8 |[M:17/16] x17/2 |[M:1/8] x |[M:4/4] x8 | x8 | x8 | x8 | x8 | %14
[M:9/8] x9 |[M:4/4] z2 G>G G2 G2 | x8 | x8 | x8 | x8 | x8 | x8 | c>G Gd E3- [EB] | x8 | %24
[M:33/16] x33/2 |] %25

